!! 00000] TT[00
!! NN
!!!OTL: Moli hua
!!!ARE: Asia, China, Jiangsu
!! Ethnic Group: Han
!! III, 482
!!!SCT: C0328
!!!YEM: Copyright 1995, estate of Helmut Schaffrath.
**kern
*ICvox
*Ivox
*M2/4
*k[f#c#]
*D:
{16f#
16e
16f#
16a
16b
16a
16dd
16b
=1
16a
16f#
4a
8b
=2
8dd
16ee
16ff#
16ee
16dd
16b
16dd
=3
2a}
=4
{16a
16f#
4a
8b
=5
8dd
16ee
16ff#
16dd
16b
8a
=6
8a
8e
16f#
16a
16f#
16e
=7
16d
16B
4.d}
=8
{16f#
16e
8d
8.e
16f#
=9
8a
16b
16dd
8b
8a
=10
16a
16f#
8e
16f#
16a
16f#
16e
=11
16d
16e
4B
8d}
=12
{8.e
16f#
16d
16e
16d
16B
=13
16d
16B
4.A}
=14
{16f#
16e
16f#
16a
16b
16a
16dd
16b
=15
16a
16f#
4a
8b
=16
8dd
16ee
16ff#
16ee
16dd
16b
16dd
=17
2a}
=18
{16a
16f#
4a
8b
=19
8dd
16ee
16ff#
16dd
16b
8a
=20
8a
8e
16f#
16a
16f#
16e
=21
16d
16B
4.d}
=22
{16f#
16e
8d
8.e
16f#
=23
8a
16b
16dd
8b
8a
=24
16a
16f#
8e
16f#
16a
16f#
16e
=25
16d
16e
4B
8d}
=26
{8.e
16f#
16d
16e
16d
16B
=27
16d
16B
4.A}
=28
{16f#
16e
8d
8.e
16f#
=29
8a
16b
16dd
8b
8a
=30
16a
16f#
8e
16f#
16a
16f#
16e
=31
16d
16e
4B
8d}
=32
{8.ee
16ff#
16dd
16ee
16dd
16b
=33
16a
16b
16dd
16ff#
16ee
16dd
16b
16dd
=34
2a}
==
!!!AGN: xiao diao
!! Jiang nimmt an, es ist das Original.
!!    Vorspiel weggelassen.
!!!ONB: ESAC (Essen Associative Code) Database: CHINA
!!!AMT: simple duple
!!!AIN: vox
!!!EED: Helmut Schaffrath
!!!EEV: 1.0
*-
